scripts/docs/img/uber.svg

<svg width="292" height="113" xmlns="http://www.w3.org/2000/svg"><g fill="#000203" fill-rule="evenodd"><path d="M45.9 1.471v33.582c0 11.214-4.964 15.871-16.607 15.871-11.644 0-16.608-4.657-16.608-15.871V0H1.471C.491 0 0 .491 0 1.471v34.133c0 18.753 11.95 25.31 29.293 25.31 17.342 0 29.292-6.557 29.292-25.31V0H47.37c-.98 0-1.47.491-1.47 1.471M208.469 9.744c.919 0 1.348-.306 1.654-.981l3.249-8.028c.184-.489 0-.735-.491-.735h-45.164c-4.229 0-5.821 1.287-5.821 4.167v52.15c0 2.452 1.224 3.555 4.473 3.555h42.1c.919 0 1.348-.307 1.654-.98l3.249-8.029c.184-.49 0-.735-.491-.735h-38.545V39.526c0-3.677 2.022-5.332 7.475-5.332h16.731c.919 0 1.347-.305 1.654-.979l3.126-7.722c.183-.491 0-.735-.491-.735h-28.495V9.744h34.133M117.196 50.251H95.067v-10.97c0-3.677 2.022-5.331 7.477-5.331h14.652c7.047 0 9.008 2.696 9.008 8.212 0 5.515-1.961 8.089-9.008 8.089zM95.067 9.621h19.8c6.618 0 8.457 2.493 8.457 7.66 0 5.168-1.839 7.661-8.457 7.661h-19.8zm33.895 18.691c4.902-2.574 6.924-7.415 6.924-13.114C135.886 1.961 125.101 0 113.948 0H88.455c-4.229 0-5.821 1.287-5.821 4.167v52.15c0 2.452 1.225 3.555 4.473 3.555h31.376c11.827 0 20.283-4.596 20.283-16.546 0-7.17-3.064-13.237-9.804-15.014zM268.246 27.76H247.41V9.622h20.836c7.782 0 9.498 3.002 9.498 9.069 0 6.128-1.716 9.069-9.498 9.069zm23.409 31.07l-13.42-23.042c6.679-1.715 12.072-6.127 12.072-17.342 0-14.523-9.009-18.446-23.9-18.446h-25.615c-4.228 0-5.822 1.287-5.822 4.167v54.234c0 .98.491 1.471 1.471 1.471h10.969V42.407c0-3.677 2.022-5.332 7.477-5.332h11.03l12.133 21.817c.368.612.736.98 1.655.98h11.399c.797 0 .797-.675.551-1.042z"/></g><g aria-label="ru" style="line-height:1.25" font-size="64"><path d="M258.846 86.016V80h-2.24c-3.584 0-6.208 1.664-7.808 4.288v-4.032h-6.4v32.64h6.464v-18.56c0-5.056 3.072-8.32 7.296-8.32zM263.134 101.12c0 6.976 5.056 12.416 12.544 12.416 3.904 0 7.36-1.6 9.6-4.288v3.648h6.464v-32.64h-6.464v19.392c0 4.8-3.328 8.192-8 8.192-4.608 0-7.68-3.392-7.68-7.936V80.256h-6.464z"/></g></svg>

<?xml version="1.0" encoding="UTF-8"?>
<svg width="292px" height="61px" viewBox="0 0 292 61" version="1.1" xmlns="http://www.w3.org/2000/svg" xmlns:xlink="http://www.w3.org/1999/xlink">
    <!-- Generator: Sketch 41 (35326) - http://www.bohemiancoding.com/sketch -->
    <title>Group</title>
    <desc>Created with Sketch.</desc>
    <defs></defs>
    <g id="Page-1" stroke="none" stroke-width="1" fill="none" fill-rule="evenodd">
        <g id="Group" fill="#000203">
            <path d="M45.9,1.471 L45.9,35.053 C45.9,46.267 40.936,50.924 29.293,50.924 C17.649,50.924 12.685,46.267 12.685,35.053 L12.685,0 L1.471,0 C0.491,0 0,0.491 0,1.471 L0,35.604 C0,54.357 11.95,60.914 29.293,60.914 C46.635,60.914 58.585,54.357 58.585,35.604 L58.585,0 L47.37,0 C46.39,0 45.9,0.491 45.9,1.471" id="Fill-1"></path>
            <path d="M208.469,9.744 C209.388,9.744 209.817,9.438 210.123,8.763 L213.372,0.735 C213.556,0.246 213.372,0 212.881,0 L167.717,0 C163.488,0 161.896,1.287 161.896,4.167 L161.896,56.317 C161.896,58.769 163.12,59.872 166.369,59.872 L208.469,59.872 C209.388,59.872 209.817,59.565 210.123,58.892 L213.372,50.863 C213.556,50.373 213.372,50.128 212.881,50.128 L174.336,50.128 L174.336,39.526 C174.336,35.849 176.358,34.194 181.811,34.194 L198.542,34.194 C199.461,34.194 199.889,33.889 200.196,33.215 L203.322,25.493 C203.505,25.002 203.322,24.758 202.831,24.758 L174.336,24.758 L174.336,9.744 L208.469,9.744" id="Fill-2"></path>
            <path d="M117.196,50.251 L95.067,50.251 L95.067,39.281 C95.067,35.604 97.089,33.95 102.544,33.95 L117.196,33.95 C124.243,33.95 126.204,36.646 126.204,42.162 C126.204,47.677 124.243,50.251 117.196,50.251 Z M95.067,9.621 L114.867,9.621 C121.485,9.621 123.324,12.114 123.324,17.281 C123.324,22.449 121.485,24.942 114.867,24.942 L95.067,24.942 L95.067,9.621 Z M128.962,28.312 C133.864,25.738 135.886,20.897 135.886,15.198 C135.886,1.961 125.101,0 113.948,0 L88.455,0 C84.226,0 82.634,1.287 82.634,4.167 L82.634,56.317 C82.634,58.769 83.859,59.872 87.107,59.872 L118.483,59.872 C130.31,59.872 138.766,55.276 138.766,43.326 C138.766,36.156 135.702,30.089 128.962,28.312 L128.962,28.312 Z" id="Fill-3"></path>
            <path d="M268.246,27.76 L247.41,27.76 L247.41,9.622 L268.246,9.622 C276.028,9.622 277.744,12.624 277.744,18.691 C277.744,24.819 276.028,27.76 268.246,27.76 Z M291.655,58.83 L278.235,35.788 C284.914,34.073 290.307,29.661 290.307,18.446 C290.307,3.923 281.298,0 266.407,0 L240.792,0 C236.564,0 234.97,1.287 234.97,4.167 L234.97,58.401 C234.97,59.381 235.461,59.872 236.441,59.872 L247.41,59.872 L247.41,42.407 C247.41,38.73 249.432,37.075 254.887,37.075 L265.917,37.075 L278.05,58.892 C278.418,59.504 278.786,59.872 279.705,59.872 L291.104,59.872 C291.901,59.872 291.901,59.197 291.655,58.83 L291.655,58.83 Z" id="Fill-4"></path>
        </g>
    </g>
</svg>
